Numix/16/mimetypes/text-x-c++hdr.svg

<?xml version="1.0" encoding="UTF-8" standalone="no"?>
<svg
   xmlns:dc="http://purl.org/dc/elements/1.1/"
   xmlns:cc="http://creativecommons.org/ns#"
   xmlns:rdf="http://www.w3.org/1999/02/22-rdf-syntax-ns#"
   xmlns:svg="http://www.w3.org/2000/svg"
   xmlns="http://www.w3.org/2000/svg"
   xmlns:sodipodi="http://sodipodi.sourceforge.net/DTD/sodipodi-0.dtd"
   xmlns:inkscape="http://www.inkscape.org/namespaces/inkscape"
   width="16"
   height="16"
   viewBox="0 0 16 16"
   id="svg2"
   version="1.1"
   inkscape:version="0.91 r"
   sodipodi:docname="text-x-c++hdr.svg">
  <metadata
     id="metadata40">
    <rdf:RDF>
      <cc:Work
         rdf:about="">
        <dc:format>image/svg+xml</dc:format>
        <dc:type
           rdf:resource="http://purl.org/dc/dcmitype/StillImage" />
        <dc:title></dc:title>
      </cc:Work>
    </rdf:RDF>
  </metadata>
  <defs
     id="defs38" />
  <sodipodi:namedview
     pagecolor="#ffffff"
     bordercolor="#666666"
     borderopacity="1"
     objecttolerance="10"
     gridtolerance="10"
     guidetolerance="10"
     inkscape:pageopacity="0"
     inkscape:pageshadow="2"
     inkscape:window-width="1920"
     inkscape:window-height="1056"
     id="namedview36"
     showgrid="true"
     inkscape:zoom="10.429825"
     inkscape:cx="22.646358"
     inkscape:cy="2.1417394"
     inkscape:window-x="0"
     inkscape:window-y="24"
     inkscape:window-maximized="1"
     inkscape:current-layer="svg2">
    <inkscape:grid
       type="xygrid"
       id="grid3036" />
  </sodipodi:namedview>
  <path
     style="fill:#dcdcdc;fill-opacity:1"
     d="M 2.667969,-4.458e-4 C 2.324219,-4.458e-4 2,0.3378122 2,0.6964469 L 2,15.303108 C 2,15.641365 2.34375,16 2.667969,16 l 10.664062,0 C 13.65625,16 14,15.641365 14,15.303108 L 14,3.999554 10,-4.458e-4 z"
     id="path4"
     inkscape:connector-curvature="0"
     sodipodi:nodetypes="ssssssccs" />
  <path
     style="fill:#000000;fill-opacity:0.19599998"
     d="m 10.583223,3.331585 0.0154,0.01953 0.04005,-0.01953 z m 0.02978,0.667969 3.387,3.664062 0,-3.664062 z"
     id="path6"
     inkscape:connector-curvature="0"
     sodipodi:nodetypes="cccccccc" />
  <path
     style="fill:#ffffff;fill-opacity:0.39200003"
     d="m 10,-4.458e-4 3.996396,3.9999998 -3.383784,0 C 10.313513,3.999554 10,3.682437 10,3.383338 z"
     id="path8"
     inkscape:connector-curvature="0"
     sodipodi:nodetypes="ccssc" />
  <g
     transform="matrix(0.30768147,0,0,0.28770988,-2.0579907,0.69393044)"
     style="font-style:normal;font-variant:normal;font-weight:normal;font-stretch:normal;font-size:32.66667175px;line-height:125%;font-family:Ubuntu;-inkscape-font-specification:Ubuntu;letter-spacing:0px;word-spacing:0px;fill:#3e3e3e;fill-opacity:1;stroke:none;stroke-width:1px;stroke-linecap:butt;stroke-linejoin:miter;stroke-opacity:1"
     id="text4137">
    <path
       d="m 29.439507,39.296772 -3.247861,0 0,-8.600132 c 0,-1.511318 -0.211771,-2.061604 -0.582177,-2.646457 C 25.24881,27.455582 24.372976,26.9728 23.431042,26.9728 c -0.713996,0 -1.63305,0.318611 -1.960125,0.552552 -0.371619,0.265802 -0.897696,0.887828 -1.131637,1.345963 -0.233941,0.458134 -0.359903,0.943105 -0.497125,1.607707 -0.08413,0.407483 -0.152787,1.337684 -0.152787,2.074525 l 0,6.743225 -3.250319,0 0,-24.330065 3.24991,0 0,11.021871 c 0.477631,-0.848037 1.439824,-1.457259 2.180637,-1.827665 0.740813,-0.380154 1.586577,-0.554072 2.522341,-0.554072 0.809045,0 1.317498,0.100813 1.970584,0.334753 0.662833,0.224194 1.22819,0.579979 1.696072,1.067356 0.467882,0.487377 0.828541,1.11122 1.081977,1.871528 0.253436,0.75056 0.298937,1.652208 0.298937,2.704943 z"
       style="font-style:normal;font-variant:normal;font-weight:bold;font-stretch:normal;font-family:'Droid Sans';-inkscape-font-specification:'Droid Sans Bold';fill:#3e3e3e;fill-opacity:1"
       id="path4142"
       inkscape:connector-curvature="0"
       sodipodi:nodetypes="ccscsssssccccccscscsc" />
  </g>
  <path
     style="fill:#3e3e3e;fill-opacity:1"
     sodipodi:nodetypes="cccccccccccc"
     inkscape:connector-curvature="0"
     id="path14"
     d="M 10,10 9,10 9,11 8,11 8,10 7,10 7,9 8,9 8,8 9,8 9,9 10,9" />
  <path
     style="fill:#3e3e3e;fill-opacity:1"
     sodipodi:nodetypes="cccccccccccc"
     inkscape:connector-curvature="0"
     id="path16"
     d="m 13,9 0,1 -1,0 0,1 -1,0 0,-1 -1,0 0,-1 1,0 0,-1 1,0 0,1" />
</svg>

<svg xmlns="http://www.w3.org/2000/svg" viewBox="0 0 16 16">
 <path d="m 2.668 0 c -0.344 0 -0.668 0.338 -0.668 0.697 l 0 14.607 c 0 0.338 0.344 0.697 0.668 0.697 l 10.664 0 c 0.324 0 0.668 -0.359 0.668 -0.697 l 0 -11.304 -4 -4 z" style="fill:#dcdcdc;fill-opacity:1"/>
 <path d="m 10.583 3.332 0.015 0.02 0.04 -0.02 z m 0.03 0.668 3.387 3.664 0 -3.664 z" style="fill:#000;fill-opacity:0.196"/>
 <path d="m 10 0 3.996 4 -3.384 0 c -0.299 0 -0.613 -0.317 -0.613 -0.616 z" style="fill:#fff;fill-opacity:0.392"/>
 <g transform="matrix(0.30768147,0,0,0.28770988,-2.0579907,0.69393044)" style="fill:#3e3e3e;fill-opacity:1;stroke:none">
  <path d="m 29.44 39.3 -3.248 0 0 -8.6 c 0 -1.511 -0.212 -2.062 -0.582 -2.646 c -0.361 -0.595 -1.236 -1.077 -2.178 -1.077 c -0.714 0 -1.633 0.319 -1.96 0.553 -0.372 0.266 -0.898 0.888 -1.132 1.346 -0.234 0.458 -0.36 0.943 -0.497 1.608 -0.084 0.407 -0.153 1.338 -0.153 2.075 l 0 6.743 -3.25 0 0 -24.33 3.25 0 0 11.02 c 0.478 -0.848 1.44 -1.457 2.181 -1.828 0.741 -0.38 1.587 -0.554 2.522 -0.554 0.809 0 1.317 0.101 1.971 0.335 0.663 0.224 1.228 0.58 1.696 1.067 0.468 0.487 0.829 1.111 1.082 1.872 0.253 0.751 0.299 1.652 0.299 2.705 z"/>
 </g>
 <path d="m 10 10 -1 0 0 1 -1 0 0 -1 -1 0 0 -1 1 0 0 -1 1 0 0 1 1 0" style="fill:#3e3e3e;fill-opacity:1"/>
 <path d="m 13 9 0 1 -1 0 0 1 -1 0 0 -1 -1 0 0 -1 1 0 0 -1 1 0 0 1" style="fill:#3e3e3e;fill-opacity:1"/>
</svg>
